X:210
T: Congress
S: "Ceol Rince na hEireann" 1/122
Z: B.Black
L: 1/8
M: 4/4
R: reel
K: Ador
(3B^cd|eAAF A2 (3B^cd|eaag e3d|eA A2 fA A2|BAGA Bcdf|
eAAF A2 (3B^cd|eaag e2 dB|cBcd e2 ed|cABG A2 :|
(3B^cd|eaab a3g|eaag e2 dg|e2 dg e2 dg|egga ge d2|
eaab a3g|eaag e2 dB|cBcd e2 ed|cABG A2 :|
